X:667
T:Planxty Denis O'Conor
C:O'Carolan
B:O'Neill's 667
Z: 1997 by John Chambers <jc@trillian.mit.edu>
N:"Spirited"
M:6/8
L:1/8
K:Bb
B2B BcA|B2f fge|d2e fdB|cBAB cAF|
|B2B BcA|B2f fge|d2e fdB|FGA B2z||
|f2f fga|b2f gfe|d2e fdB|cBAB cAF|
|f2f fga|b2b bag|f2g fdB FGA B2z||
|B,DF BAB|cAF FGA|Bcd dcB|cAF EDC|
B,DF BAB|cde edc|f2F FGA|B3 B2z|]
